X:1
T:I'll Build A Stairway To Paradise
C:George Gershwin
Z:All Rights Reserved
L:1/8
M:2/2
K:C
V:1 treble 
%%MIDI program 0
V:1
"C" C2 c>A"G7" G2 A>G |"C7" _B>A G2-"G" G2 E>D |"C" C2 E2 G A3 |"C7" _B8 |"F" F2 f>d"C7" c2 d>c | %5
w: I'll Build A Stair- way To|Par- a- dise _ with a|new step ev- 'ry|day!|I'm going to get there at|
"F7" _e>d c4 d>c |"C/E" d2 c2"Ebdim7" B A3 |"G7sus4""G7" G4 z3/2 G<AG/ |"C" c4- c>ed>c | %9
w: an- y price, stand a-|side I'm on my|way! I've got the|blues _ and up a-|
 e>dc z c4 |"Ab7" c4 z _e dc | _edc z c4 |"C" C2 c>A"G+7" G2 A>G |"C7" _B>A G4"C#dim" e>^d | %14
w: bove it's so fair.|Shoes! Go on and|car- ry me there!|I'll Build A Stair- way To|Par- a- dise with a|
"D7" e2 B2"G7sus4" A G3 |1"C" c4"F#dim7""G7" z4 :|2"C""Ab7" c4-"C" c2 z2 |] %17
w: new step ev- 'ry|day.|day. _|

